X: 13544
T: Flowing Bowl, The
R: reel
M: 4/4
K: Dmajor
ef|:gfed cA~A2|cAdA cA~A2|gfed cA~A2|1 fage d2ef:|2 fage dABc||
df~f2 af~f2|dfaf gece|df~f2 af~f2|~g3e cABc|
df~f2 af~f2|dfaf gece|~f3d ~g3e|fage d2||

